launcher/android/assets/skins/day/svg/dialog_header.svg

<svg enable-background="new 0 0 211.59 29.94" height="29.9417" viewBox="0 0 211.59 29.94" width="211.593" xmlns="http://www.w3.org/2000/svg"><path d="m193.628 204.814h-175.6625c-6.6147 0-11.97702-5.362-11.97702-11.976v-139.7318-35.9306c0-6.615 5.36232-11.97734 11.97702-11.97734h175.6625c6.614 0 11.977 5.36234 11.977 11.97734v35.9306 139.7318c0 6.614-5.363 11.976-11.977 11.976z" fill="#fff" stroke="#96b66e" stroke-linejoin="round" stroke-width="4"/><path d="m192.614 207.165-174.9129.041c-6.6538-.083-13.47404-8.317-13.47403-13.973l-.04158-140.7274v-36.649c.08316-5.4796 6.07161-12.21663 12.21651-12.21675l177.959.04174c6.747 0 13.391 6.0716 13.557 14.72171l-.125 34.1023.042 140.3114c0 7.361-8.474 14.348-15.221 14.348z" fill="none" stroke="#000" stroke-linejoin="round" stroke-width="2"/></svg>

﻿<?xml version="1.0" encoding="utf-8"?>
<!DOCTYPE svg PUBLIC "-//W3C//DTD SVG 1.1//EN" "http://www.w3.org/Graphics/SVG/1.1/DTD/svg11.dtd">
<svg xmlns="http://www.w3.org/2000/svg" xmlns:xlink="http://www.w3.org/1999/xlink" version="1.1" baseProfile="full" width="211.593" height="29.9417" viewBox="0 0 211.59 29.94" enable-background="new 0 0 211.59 29.94" xml:space="preserve">
	<path fill="#FFFFFF" fill-opacity="1" stroke-width="4" stroke-linejoin="round" stroke="#96B66E" stroke-opacity="1" d="M 193.628,204.814L 17.9655,204.814C 11.3508,204.814 5.98848,199.452 5.98848,192.838L 5.98848,53.1062L 5.98848,17.1756C 5.98848,10.5606 11.3508,5.19826 17.9655,5.19826L 193.628,5.19826C 200.242,5.19826 205.605,10.5606 205.605,17.1756L 205.605,53.1062L 205.605,192.838C 205.605,199.452 200.242,204.814 193.628,204.814 Z "/>
	<path fill="none" stroke-width="2" stroke-linejoin="round" stroke="#000000" stroke-opacity="1" d="M 192.614,207.165L 17.7011,207.206C 11.0473,207.123 4.22706,198.889 4.22707,193.233L 4.18549,52.5056L 4.18549,15.8566C 4.26865,10.377 10.2571,3.63997 16.402,3.63985L 194.361,3.68159C 201.108,3.68159 207.752,9.75319 207.918,18.4033L 207.793,52.5056L 207.835,192.817C 207.835,200.178 199.361,207.165 192.614,207.165 Z "/>
</svg>
